X: 10
T: LADY IN THE BOAT
S: "COUNTRY DANCES OF TODAY 2", CDSS, May Gadd ed., 1951 p.12
R: jig
Z: 2010 John Chambers <jc:trillian.mit.edu>
N: Measure 13 should probably be like measure 9.
M: 6/8
L: 1/8
K: D
"A"|: A |\
"D"dfA d2A | dfA d2f | a2f fed | "A(G)"e>fe "(A)"ecA |\
"D"dfA d2A | dfA d2f | a2f "A"efe | "D"d3- d2 :|
"B"|: d/e/ |\
"D"f3 "G"gfg | "D"a3 f2g | a>gf fed | "A"efe ecA |\
"D"f3 "G"fgf | "D"a3 f2g | a>gf "A"efe | "D"d3- d2 :|


%%sep 5 1 500

%%sep 1 1 500

